packages/icons/svg/Outline/pie-chart.svg

<svg width="24" height="24" viewBox="0 0 24 24" fill="none" xmlns="http://www.w3.org/2000/svg">
<g id="Icon/Outline/pie-chart">
<path id="Mask" fill-rule="evenodd" clip-rule="evenodd" d="M20.8212 14.0576C20.2982 13.8716 19.7282 14.1446 19.5452 14.6666C18.4172 17.8566 15.3842 19.9996 12.0002 19.9996C7.58924 19.9996 4.00024 16.4116 4.00024 11.9996C4.00024 8.6156 6.14324 5.5826 9.33324 4.4546C9.85424 4.2716 10.1272 3.7006 9.94324 3.1796C9.75924 2.6596 9.18824 2.3856 8.66724 2.5706C4.67924 3.9796 2.00024 7.7686 2.00024 11.9996C2.00024 17.5136 6.48624 21.9996 12.0002 21.9996C16.2312 21.9996 20.0202 19.3216 21.4302 15.3326C21.6142 14.8126 21.3422 14.2416 20.8212 14.0576ZM13.9999 10V4.071C17.0609 4.511 19.4889 6.938 19.9289 10H13.9999ZM12.9999 2C12.4479 2 11.9999 2.447 11.9999 3V11C11.9999 11.553 12.4479 12 12.9999 12H20.9999C21.5519 12 21.9999 11.553 21.9999 11C21.9999 6.037 17.9619 2 12.9999 2Z" fill="#000000"/>
</g>
</svg>

<svg fill="none" height="24" viewBox="0 0 24 24" width="24" xmlns="http://www.w3.org/2000/svg"><path clip-rule="evenodd" d="m20.8214 14.0577c-.523-.186-1.093.087-1.276.609-1.128 3.19-4.161 5.333-7.545 5.333-4.41103 0-8.00003-3.588-8.00003-8 0-3.384 2.143-6.417 5.333-7.545.521-.183.79403-.754.61-1.275-.184-.52-.755-.794-1.276-.609-3.988 1.409-6.667 5.198-6.667 9.429 0 5.514 4.486 10 10.00003 10 4.231 0 8.02-2.678 9.43-6.667.184-.52-.088-1.091-.609-1.275zm-6.8213-4.0578v-5.929c3.061.44 5.489 2.867 5.929 5.929zm-1.0001-7.9999c-.552 0-1 .447-1 1v8c0 .553.448 1 1 1h8c.552 0 1-.447 1-1 0-4.963-4.038-9-9-9z" fill="#6b7280" fill-rule="evenodd"/></svg>
